X: 9
T: Father Kelley's Reel
T: the Rossmore Jetty
O: Ireland
Z: John Chambers <jc:trillian.mit.edu>
R: reel
M: C|
L: 1/8
K: G
GA \
| "G"B2GB "C"AGEG | "D7"DGGF "G"GABd | "Am"c2AB cBAG | "D7"FGAG FDDA |  "G"B2GB "C"AGEG |
| "D7"DGGF "G"GABd | "C"cdef "(G)"gedc | "D7"BGAF "G"G2 :: Bc | "G"d2Bd gdBd | d2Bd gdBd |
| "C(Am)"e2ce agfe | "D7"defg agfe |  "G"d2Bd gdBd | d2Bd gdBd | "Am"cBAc "G"BAGB | "D7"AGFA "G"G2 :|
%%sep 2 1 500
